X:1
T:Title
%%score { ( 1 2 ) | ( 3 4 ) }
L:1/8
Q:1/4=100
M:4/4
K:G
V:1 treble nm="Grand Piano"
V:2 treble 
V:3 bass 
V:4 bass 
V:1
 [DB]4 z4 | D2 F2 A4 | [Ac]4 z4 | D2 G2 B4 | [DB]4 z4 | [G,D]2 [B,G]2 [E^Gd]2 [EAc]2 | %6
 [DGB]4 [CFA]4 | [B,G]6 z2 |] %8
V:2
 z G,G,[DB] [^C_B][D=B][Ec]B | x8 | z DD[Ac] [^GB][Ac][Bd]c | x8 | z G,G,[G,DG] [EA][EG][DF]E | %5
 x8 | x8 | x8 |] %8
V:3
 [G,,G,]G,,G,,[G,,G,] [G,,G,]2 z D | [D,F,C]2 [D,A,C]2 [D,F,C]4 | %2
 [D,D]D,D,[D,D] [D,D]2 z[K:treble] A | [G,B,]2 [G,B,D]2 [G,DG]4 | z4 z2 [C,G,]2 | %5
 B,,2 z[K:treble] B[K:bass] B,,2 A,,2 | D,4 D,4 | G,,6 z2 |] %8
V:4
 z4 z2 [G,,G,]2 | x8 | z4 z2 [D,D]2[K:treble] | x8 | [G,,G,]G,,B,,B,, [C,G,]2 z C | %5
 z2 E,2[K:treble][K:bass] z4 | x8 | x8 |] %8

